packages/core/src/svgs/aqt.svg

<svg width="24" height="24" viewBox="0 0 24 24" fill="none" xmlns="http://www.w3.org/2000/svg">
<g clip-path="url(#clip0_31_6026)">
<path d="M0 0H24V24H0V0Z" fill="#F0F3FA"/>
<path fill-rule="evenodd" clip-rule="evenodd" d="M18.7457 17.1729C19.0243 17.6443 18.7457 18.4286 18.2443 18.4286C17.6572 18.4286 17.5329 18.2743 17.3915 18.0986L17.31 18.0043L14.9015 13.2558C14.5899 12.7618 14.1506 12.3612 13.63 12.0964C13.1095 11.8316 12.527 11.7124 11.9443 11.7515C9.88717 11.8586 9.1286 12.8529 8.18146 14.9186V15.0558C8.78989 14.907 9.41529 14.8393 10.0415 14.8543C11.34 14.8543 13.4143 15.78 13.9543 17.2243C14.0829 17.5672 13.9586 17.97 13.7529 18.1329C13.4957 18.3429 13.0843 18.5143 12.6043 18.1929C12.4886 18.1158 12.3729 17.9743 12.2315 17.8029C11.7815 17.2586 11.1 16.4272 9.4886 16.5343C7.80431 16.65 6.86574 17.6486 6.6086 18.1329C6.51027 18.2456 6.38418 18.3306 6.24283 18.3795C6.10149 18.4283 5.94982 18.4394 5.80288 18.4115C5.29717 18.3129 5.05288 17.9443 5.17288 17.4343C5.24146 17.16 7.27288 12.96 9.24431 8.86719L11.2757 4.66719C11.3304 4.55465 11.4153 4.45956 11.5209 4.3926C11.6266 4.32564 11.7488 4.28946 11.8739 4.28812C11.999 4.28679 12.122 4.32035 12.229 4.38504C12.3361 4.44973 12.423 4.54298 12.48 4.65433L18.7457 17.1686V17.1729ZM10.38 10.4315L11.9315 7.06719L13.5043 10.4315C13.1272 10.3115 11.97 10.14 10.38 10.4315Z" fill="#FC452D"/>
</g>
<defs>
<clipPath id="clip0_31_6026">
<rect width="24" height="24" fill="white"/>
</clipPath>
</defs>
</svg>

<svg xmlns="http://www.w3.org/2000/svg" width="24" height="24" fill="none" viewBox="0 0 24 24"><g clip-path="url(#a)"><path fill="#F0F3FA" d="M0 0h24v24H0z"/><path fill="#FC452D" fill-rule="evenodd" d="M18.746 17.173c.278.471 0 1.256-.502 1.256-.587 0-.711-.155-.852-.33l-.082-.095-2.408-4.748a3.24 3.24 0 0 0-2.958-1.505c-2.057.108-2.815 1.102-3.763 3.168v.137a7.1 7.1 0 0 1 1.86-.202c1.299 0 3.373.926 3.913 2.37.129.343.005.746-.201.909-.257.21-.669.381-1.149.06-.115-.077-.231-.219-.372-.39-.45-.544-1.132-1.376-2.743-1.269-1.685.116-2.623 1.115-2.88 1.599a.86.86 0 0 1-.806.279c-.506-.1-.75-.468-.63-.978.068-.274 2.1-4.474 4.071-8.567l2.032-4.2a.674.674 0 0 1 1.204-.013l6.266 12.515zm-8.366-6.741 1.551-3.365 1.573 3.364c-.377-.12-1.534-.291-3.124 0" clip-rule="evenodd"/></g><defs><clipPath id="a"><path fill="#fff" d="M0 0h24v24H0z"/></clipPath></defs></svg>
